images/icons_family.svg

<svg xmlns="http://www.w3.org/2000/svg" viewBox="0 0 144 144" enable-background="new 0 0 144 144"><style type="text/css">.st0{fill:#FFFFFF;}</style><path class="st0" d="M72 7.7c-36.3 0-65.7 29.4-65.7 65.7 0 16.1 5.8 30.9 15.5 42.3v-20.2c12.6-7.3 28.3-7.1 40.9.5v42.3c2.4.3 4.8.6 7.3.6v-29.2c9-5.2 20.1-5.1 29 .3v23.1c22.8-10.3 38.7-33.2 38.7-59.9 0-36.1-29.4-65.5-65.7-65.5zm-29.8 77.4c-10 0-18.1-8.1-18.1-18.1 0-10 8.1-18.1 18.1-18.1 10 0 18.1 8.1 18.1 18.1 0 10-8.1 18.1-18.1 18.1zm42.3 17.3c-7.1 0-12.9-5.8-12.9-12.9 0-7.1 5.8-12.9 12.9-12.9 7.1 0 12.9 5.8 12.9 12.9 0 7.1-5.8 12.9-12.9 12.9zm16.7-57.9v19.8h-7.7v-19.8h-20.3v-7.2h20.3v-19.8h7.7v19.8h20.3v7.2h-20.3z" id="Layer_1"/></svg>

<?xml version="1.0" encoding="utf-8"?>
<!-- Generator: Adobe Illustrator 19.1.0, SVG Export Plug-In . SVG Version: 6.00 Build 0)  -->
<svg version="1.1" xmlns="http://www.w3.org/2000/svg" xmlns:xlink="http://www.w3.org/1999/xlink" x="0px" y="0px"
	 viewBox="0 0 144 144" style="enable-background:new 0 0 144 144;" xml:space="preserve">
<style type="text/css">
	.st0{fill:#FFFFFF;}
</style>
<g id="Layer_1">
	<path class="st0" d="M72,7.7C35.7,7.7,6.3,37.1,6.3,73.4c0,16.1,5.8,30.9,15.5,42.3V95.5c12.6-7.3,28.3-7.1,40.9,0.5v42.3
		c2.4,0.3,4.8,0.6,7.3,0.6v-29.2c9-5.2,20.1-5.1,29,0.3v23.1c22.8-10.3,38.7-33.2,38.7-59.9C137.7,37.1,108.3,7.7,72,7.7z
		 M42.2,85.1c-10,0-18.1-8.1-18.1-18.1c0-10,8.1-18.1,18.1-18.1c10,0,18.1,8.1,18.1,18.1C60.3,77,52.2,85.1,42.2,85.1z M84.5,102.4
		c-7.1,0-12.9-5.8-12.9-12.9c0-7.1,5.8-12.9,12.9-12.9c7.1,0,12.9,5.8,12.9,12.9C97.4,96.6,91.6,102.4,84.5,102.4z M101.2,44.5v19.8
		h-7.7V44.5H73.2v-7.2h20.3V17.5h7.7v19.8h20.3v7.2H101.2z"/>
</g>
<g id="Layer_2">
</g>
</svg>
